public/images/icons/account-multiple.svg

<svg xmlns="http://www.w3.org/2000/svg" fill="currentColor" viewBox="0 0 24 24"><path d="M16 17v2H2v-2s0-4 7-4 7 4 7 4m-3.5-9.5A3.5 3.5 0 1 0 9 11a3.5 3.5 0 0 0 3.5-3.5m3.44 5.5A5.32 5.32 0 0 1 18 17v2h4v-2s0-3.63-6.06-4M15 4a3.39 3.39 0 0 0-1.93.59 5 5 0 0 1 0 5.82A3.39 3.39 0 0 0 15 11a3.5 3.5 0 0 0 0-7Z"/></svg>

<svg xmlns="http://www.w3.org/2000/svg" viewBox="0 0 24 24" fill="currentColor"><path d="M16 17V19H2V17S2 13 9 13 16 17 16 17M12.5 7.5A3.5 3.5 0 1 0 9 11A3.5 3.5 0 0 0 12.5 7.5M15.94 13A5.32 5.32 0 0 1 18 17V19H22V17S22 13.37 15.94 13M15 4A3.39 3.39 0 0 0 13.07 4.59A5 5 0 0 1 13.07 10.41A3.39 3.39 0 0 0 15 11A3.5 3.5 0 0 0 15 4Z" /></svg>
